X: 434
M: C|
L: 1/8
K: Dm
e2 |\
f3e d2e2 | A2d2 d2e2 | f2g2 a2gf | (gf) (ed) ^c2e2 |\
f3e d2e2 | A2d2 d2f2 | a2(gf) e3d | d6 |]
(cd) (cA) (cd) (cA) | c2F2 F2(Bc) | (dB) (dB) (dB) (dB) | d2G2 G2ef |\
(gf) (ef) (gf) (ef) | (gf) (ef) ^c2a2 | f2ed e2^c2 | d6 |]

